src/ClientApp/src/assets/facebook_grey.svg

<svg width="45" height="45" viewBox="0 0 45 45" fill="none" xmlns="http://www.w3.org/2000/svg">
<rect width="45" height="45" rx="5" fill="#ACACAC"/>
<path d="M29.4341 22.28H24.9732V38.6228H18.2145V22.28H15V16.5365H18.2145V12.8198C18.2145 10.1619 19.477 6 25.0333 6L30.0398 6.02095V11.596H26.4073C25.8114 11.596 24.9736 11.8937 24.9736 13.1616V16.5418H30.0246L29.4341 22.28Z" fill="#D9D9D9"/>
</svg>

<svg width="45" height="45" fill="none" xmlns="http://www.w3.org/2000/svg"><rect width="45" height="45" rx="5" fill="#ACACAC"/><path d="M29.434 22.28h-4.46v16.343h-6.76V22.28H15v-5.744h3.215V12.82c0-2.658 1.262-6.82 6.818-6.82l5.007.021v5.575h-3.633c-.596 0-1.433.298-1.433 1.566v3.38h5.05l-.59 5.738z" fill="#D9D9D9"/></svg>
